X: 11315
T: Eagle's Whistle, The
R: waltz
M: 3/4
K: Gmajor
M:3/4
B2 dB AG|B2 dB AG|A3 BAG|A2 AB AG|B2 dB AG|B2 dB AG|
FG2B AG|1 G3 G,GA:|2 G3 GBd]|eg/e/ de g2|eg dB AG|A3 BAG|A3 ABd|
eg/e/ de g2|eg dB AG|G3 BAG|1 G3 GBd:|2 G3 G,GA||

